icons/solid/device-tablet.svg

<svg width="24" height="24" viewBox="0 0 24 24" fill="none" xmlns="http://www.w3.org/2000/svg">
<path fill-rule="evenodd" clip-rule="evenodd" d="M7 22C5.34315 22 4 20.6569 4 19V5C4 3.34315 5.34315 2 7 2H17C18.6569 2 20 3.34314 20 5V19C20 20.6569 18.6569 22 17 22H7ZM11 17C10.4477 17 10 17.4477 10 18C10 18.5523 10.4477 19 11 19H13C13.5523 19 14 18.5523 14 18C14 17.4477 13.5523 17 13 17H11Z" fill="currentColor"/>
</svg>

<svg width="24" height="24" fill="none" xmlns="http://www.w3.org/2000/svg"><path fill-rule="evenodd" clip-rule="evenodd" d="M7 22a3 3 0 01-3-3V5a3 3 0 013-3h10a3 3 0 013 3v14a3 3 0 01-3 3H7zm4-5a1 1 0 100 2h2a1 1 0 100-2h-2z" fill="currentColor"/></svg>
